X: 37
T: Xiaomeme xinshang kailehua
%%abc-version 2.0
%%abcx-abcm2ps-target-version 5.9.1 (29 Sep 2008)
%%abc-creator hum2abc beta
%%abcx-conversion-date 2013/10/02 07:52:29
%%abc-edited-by Helmut Schaffrath
%%humdrum-veritas 2712637865
%%humdrum-veritas-data 801082275
%%continueall 1
%%barnumbers 0
L: 1/8
M: 2/4
K: C
d d g c/ c/ [I:setbarnb 1]| 
A G E D | 
d d g c | 
A4 | 
d d g c | 
A G E D | 
G G A E | 
D4 |]  



